X:1
T:Quasi adagio
T:Lento
T:Béla Bartók Revised and Arranged by the Composer, January 1945 
T:Book 1 (after Hungarian Folksongs)
T:For Children Nr 11, Sz 42
C:Bela bartok
%%score { 1 | ( 2 3 ) }
L:1/8
Q:1/4=66
M:2/4
K:D
V:1 treble nm="Piano"
V:2 bass 
V:3 bass 
V:1
"^Lento,"!p!!<(! (!1!D!3!GFG | A2!<)!!>(! F!1!D)!>)! |!<(! (!1!D!3!GFG | A2!<)!!>(! FD)!>)! | %4
!mf!"^molto espr."!>(! (!4!d2 cB | !1!A2!>)! !3!FD) |!>(! (EGFE | %7
 !1!D2)!>)! !tenuto!!2!D!tenuto!!1!D |!mp!!>(! (!4!d2 cB | A2 !3!FD)!>)! | (EGFE | %11
 !1!D2) !tenuto!!2!D!tenuto!!1!D |!<(! z2 !3
2
![=CD]2- | %13
 [CD]2!<)!"^espr."!<(!!>(! ([=C-D]2!<)!!>)! |!>(!!<(! [CE]2)!>)! [=CD]2- | %15
 [CD]2!<)!!>(! ([=CD]2!>)! |!<(! !4
1
![B,E]2) (!3
1
![EG]2 | %17
 !4
2
![FA]2) !tenuto!!2
!!5![Ad]2!<)! | z2!>(! !tenuto!!5
3

![Bd]2 | z2 (!4
2

![EG]2 | %20
 !3
1
![DF]2 !5
3
![FA]2)!>)! | z4 |"_1" z4 |[Q:1/4=55]"^Più sostenuto."!pp! (!4!d2 cB | %24
 !1!A2 !3!FD) |"_1" z4 |!pp! (!2!E!4!G) z2 | (FE) z2 | !1!D4 | !tenuto!!2!D2 !tenuto!!1!D2 |] %30
V:2
 z2 (!4
5
![D,-E,]2 | !3
5
![D,F,]2) (!2
5
![D,-A,]2 | !1
5
![D,B,]2) ([D,-E,]2 | %3
 [D,F,]2) !1
5
![D,=C]2 | (D4 | D2) z2 | !4![G,B,]2 !1
3
![A,C]2 | %7
 (!1
2
5
![G,B,]2 !1
3
![F,A,]2) | !1
2
!D4- | D2 z2 | [G,B,]2 [A,C]2 | %11
!ped! ([G,B,]2!ped-up! [F,A,]2) | (!5!D,,!p!!2!G,,F,,G,, | A,,2 F,,D,,) | (D,,G,,F,,G,, | %15
 A,,2 F,,D,,) | (D,2 C,B,, |!>(! !1!A,,2 F,,!>)!D,,) | (!4!E,,!1!G,,F,,E,, | %19
 !4!D,,2) !tenuto!!3!D,,!tenuto!!2!D,, | z4 |!pp! !tenuto!!1!D,,2 !tenuto!!3!D,,!tenuto!!2!D,, | %22
 z4 | (!2!B,2 A,G, | !1
5
![F,D]2 !2!B,2) | z4 | (!1
3
![G,B,]!5!E,) z2 | !2
4
![A,C]2 z2 | %28
!ped! !1
2
5
![D,-G,B,]4!ped-up! | !1
3
![D,F,A,]4 |] %30
V:3
 x4 | x4 | x4 | x4 | !1
2
!B,2 A,G, | F,2 !2!B,2- | x4 | D,4 | B,2 A,G, | F,2 B,2- | x4 | D,4 | %12
 x4 | x4 | x4 | x4 | x4 | x4 | x4 | x4 | x4 | x4 | x4 | x4 | x4 | x4 | x4 | x4 | x4 | x4 |] %30

